images/indikatorenset/4143.svg

<?xml version="1.0" standalone="no"?><!DOCTYPE svg PUBLIC "-//W3C//DTD SVG 1.1//EN" "http://www.w3.org/Graphics/SVG/1.1/DTD/svg11.dtd"><svg xmlns:xlink="http://www.w3.org/1999/xlink" version="1.1" class="highcharts-root" style="font-family:Arial;font-size:12px;" xmlns="http://www.w3.org/2000/svg" width="485" height="415"><desc>Created with Highcharts 5.0.7</desc><defs><clipPath id="highcharts-a7umxe5-1"><rect x="0" y="0" width="379" height="268" fill="none"></rect></clipPath></defs><rect fill="#fbfbfb" class="highcharts-background" x="0" y="0" width="485" height="415" rx="0" ry="0"></rect><rect fill="none" class="highcharts-plot-background" x="59" y="82" width="379" height="268"></rect><g class="highcharts-grid highcharts-xaxis-grid "><path fill="none" class="highcharts-grid-line" d="M 67.5 82 L 67.5 350" opacity="1"></path><path fill="none" class="highcharts-grid-line" d="M 118.5 82 L 118.5 350" opacity="1"></path><path fill="none" class="highcharts-grid-line" d="M 170.5 82 L 170.5 350" opacity="1"></path><path fill="none" class="highcharts-grid-line" d="M 222.5 82 L 222.5 350" opacity="1"></path><path fill="none" class="highcharts-grid-line" d="M 273.5 82 L 273.5 350" opacity="1"></path><path fill="none" class="highcharts-grid-line" d="M 325.5 82 L 325.5 350" opacity="1"></path><path fill="none" class="highcharts-grid-line" d="M 377.5 82 L 377.5 350" opacity="1"></path><path fill="none" class="highcharts-grid-line" d="M 428.5 82 L 428.5 350" opacity="1"></path></g><g class="highcharts-grid highcharts-yaxis-grid "><path fill="none" stroke="#e6e6e6" stroke-width="1" class="highcharts-grid-line" d="M 59 350.5 L 438 350.5" opacity="1"></path><path fill="none" stroke="#e6e6e6" stroke-width="1" class="highcharts-grid-line" d="M 59 296.5 L 438 296.5" opacity="1"></path><path fill="none" stroke="#e6e6e6" stroke-width="1" class="highcharts-grid-line" d="M 59 243.5 L 438 243.5" opacity="1"></path><path fill="none" stroke="#e6e6e6" stroke-width="1" class="highcharts-grid-line" d="M 59 189.5 L 438 189.5" opacity="1"></path><path fill="none" stroke="#e6e6e6" stroke-width="1" class="highcharts-grid-line" d="M 59 136.5 L 438 136.5" opacity="1"></path><path fill="none" stroke="#e6e6e6" stroke-width="1" class="highcharts-grid-line" d="M 59 81.5 L 438 81.5" opacity="1"></path></g><g class="highcharts-grid highcharts-yaxis-grid "><path fill="none" class="highcharts-grid-line" d="M 59 350.5 L 438 350.5" opacity="1"></path><path fill="none" class="highcharts-grid-line" d="M 59 296.5 L 438 296.5" opacity="1"></path><path fill="none" class="highcharts-grid-line" d="M 59 243.5 L 438 243.5" opacity="1"></path><path fill="none" class="highcharts-grid-line" d="M 59 189.5 L 438 189.5" opacity="1"></path><path fill="none" class="highcharts-grid-line" d="M 59 136.5 L 438 136.5" opacity="1"></path><path fill="none" class="highcharts-grid-line" d="M 59 82.5 L 438 82.5" opacity="1"></path></g><rect fill="none" class="highcharts-plot-border" x="59" y="82" width="379" height="268"></rect><g class="highcharts-axis highcharts-xaxis "><path fill="none" class="highcharts-tick" stroke="#FFFFFF" stroke-width="1" d="M 67.5 350 L 67.5 360" opacity="1"></path><path fill="none" class="highcharts-tick" stroke="#FFFFFF" stroke-width="1" d="M 118.5 350 L 118.5 360" opacity="1"></path><path fill="none" class="highcharts-tick" stroke="#FFFFFF" stroke-width="1" d="M 170.5 350 L 170.5 360" opacity="1"></path><path fill="none" class="highcharts-tick" stroke="#FFFFFF" stroke-width="1" d="M 222.5 350 L 222.5 360" opacity="1"></path><path fill="none" class="highcharts-tick" stroke="#FFFFFF" stroke-width="1" d="M 273.5 350 L 273.5 360" opacity="1"></path><path fill="none" class="highcharts-tick" stroke="#FFFFFF" stroke-width="1" d="M 325.5 350 L 325.5 360" opacity="1"></path><path fill="none" class="highcharts-tick" stroke="#FFFFFF" stroke-width="1" d="M 377.5 350 L 377.5 360" opacity="1"></path><path fill="none" class="highcharts-tick" stroke="#FFFFFF" stroke-width="1" d="M 428.5 350 L 428.5 360" opacity="1"></path><path fill="none" class="highcharts-axis-line" stroke="#ccd6eb" stroke-width="1" d="M 59 350.5 L 438 350.5"></path></g><g class="highcharts-axis highcharts-yaxis "><path fill="none" class="highcharts-axis-line" d="M 59 82 L 59 350"></path></g><g class="highcharts-axis highcharts-yaxis "><path fill="none" class="highcharts-axis-line" d="M 438 82 L 438 350"></path></g><g class="highcharts-series-group"><g class="highcharts-series highcharts-series-0 highcharts-column-series highcharts-color-undefined highcharts-tracker" transform="translate(59,82) scale(1 1)" clip-path="url(#highcharts-a7umxe5-1)"><rect x="3.5" y="52.5" width="10" height="216" fill="#73b97c" class="highcharts-point" stroke="#ffffff" stroke-width="1"></rect><rect x="106.5" y="50.5" width="10" height="218" fill="#73b97c" class="highcharts-point" stroke="#ffffff" stroke-width="1"></rect><rect x="209.5" y="41.5" width="10" height="227" fill="#73b97c" class="highcharts-point" stroke="#ffffff" stroke-width="1"></rect><rect x="313.5" y="38.5" width="10" height="230" fill="#73b97c" class="highcharts-point" stroke="#ffffff" stroke-width="1"></rect><rect x="344.5" y="37.5" width="10" height="231" fill="#73b97c" class="highcharts-point" stroke="#ffffff" stroke-width="1"></rect><rect x="354.5" y="37.5" width="10" height="231" fill="#73b97c" class="highcharts-point" stroke="#ffffff" stroke-width="1"></rect><rect x="364.5" y="36.5" width="10" height="232" fill="#73b97c" class="highcharts-point" stroke="#ffffff" stroke-width="1"></rect></g><g class="highcharts-markers highcharts-series-0 highcharts-column-series highcharts-color-undefined " transform="translate(59,82) scale(1 1)" clip-path="none"></g><g class="highcharts-series highcharts-series-1 highcharts-line-series highcharts-color-undefined " transform="translate(59,82) scale(1 1)" clip-path="url(#highcharts-a7umxe5-1)"><path fill="none" d="M 8.7779291553125 158.656 L 112.04768392371 160.8 L 215.3174386921 157.584 L 318.58719346049 158.656 L 349.56811989101 159.728 L 359.89509536785 159.728 L 370.22207084469 160.8" class="highcharts-graph" stroke="#cd9c00" stroke-width="2" stroke-linejoin="round" stroke-linecap="round"></path><path fill="none" d="M -1.2220708446875008 158.656 L 8.7779291553125 158.656 L 112.04768392371 160.8 L 215.3174386921 157.584 L 318.58719346049 158.656 L 349.56811989101 159.728 L 359.89509536785 159.728 L 370.22207084469 160.8 L 380.22207084469 160.8" stroke-linejoin="round" visibility="visible" stroke="rgba(192,192,192,0.0001)" stroke-width="22" class="highcharts-tracker"></path></g><g class="highcharts-markers highcharts-series-1 highcharts-line-series highcharts-color-undefined highcharts-tracker" transform="translate(59,82) scale(1 1)" clip-path="none"><path fill="#cd9c00" d="M 12 159 A 4 4 0 1 1 11.999998000000167 158.99600000066667 Z" class="highcharts-point"></path><path fill="#cd9c00" d="M 116 161 A 4 4 0 1 1 115.99999800000016 160.99600000066667 Z" class="highcharts-point"></path><path fill="#cd9c00" d="M 219 158 A 4 4 0 1 1 218.99999800000018 157.99600000066667 Z" class="highcharts-point"></path><path fill="#cd9c00" d="M 322 159 A 4 4 0 1 1 321.9999980000002 158.99600000066667 Z" class="highcharts-point"></path><path fill="#cd9c00" d="M 353 160 A 4 4 0 1 1 352.9999980000002 159.99600000066667 Z" class="highcharts-point"></path><path fill="#cd9c00" d="M 363 160 A 4 4 0 1 1 362.9999980000002 159.99600000066667 Z" class="highcharts-point"></path><path fill="#cd9c00" d="M 374 161 A 4 4 0 1 1 373.9999980000002 160.99600000066667 Z" class="highcharts-point"></path></g></g><text x="10" text-anchor="start" class="highcharts-title" style="color:#000000;font-size:14px;font-weight:bold;fill:#000000;" y="21"><tspan>1.4.b Genossenschaftswohnungen</tspan></text><g class="highcharts-legend" transform="translate(10,45)"><rect fill="none" class="highcharts-legend-box" rx="0" ry="0" x="0" y="0" width="437" height="25" visibility="visible"></rect><g><g><g class="highcharts-legend-item highcharts-column-series highcharts-color-undefined highcharts-series-0" transform="translate(8,3)"><text x="21" style="color:#333333;font-size:12px;font-weight:normal;cursor:pointer;fill:#333333;" text-anchor="start" y="15"><tspan>Anzahl Genossenschaftswohnungen</tspan></text><rect x="2" y="4" width="12" height="12" fill="#73b97c" class="highcharts-point"></rect></g><g class="highcharts-legend-item highcharts-line-series highcharts-color-undefined highcharts-series-1" transform="translate(243.71875,3)"><path fill="none" d="M 0 11 L 16 11" class="highcharts-graph" stroke="#cd9c00" stroke-width="2"></path><path fill="#cd9c00" d="M 12 11 A 4 4 0 1 1 11.999998000000167 10.996000000666664 Z" class="highcharts-point"></path><text x="21" y="15" style="color:#333333;font-size:12px;font-weight:normal;cursor:pointer;fill:#333333;" text-anchor="start"><tspan>Anteil in Prozent (rechte Skala)</tspan></text></g></g></g></g><g class="highcharts-axis-labels highcharts-xaxis-labels "><text x="67.77792915531245" style="color:#000000;cursor:default;font-size:11px;fill:#000000;" text-anchor="middle" transform="translate(0,0)" y="369" opacity="1">1980</text><text x="119.4128065395089" style="color:#000000;cursor:default;font-size:11px;fill:#000000;" text-anchor="middle" transform="translate(0,0)" y="369" opacity="1">1985</text><text x="171.04768392370534" style="color:#000000;cursor:default;font-size:11px;fill:#000000;" text-anchor="middle" transform="translate(0,0)" y="369" opacity="1">1990</text><text x="222.68256130790178" style="color:#000000;cursor:default;font-size:11px;fill:#000000;" text-anchor="middle" transform="translate(0,0)" y="369" opacity="1">1995</text><text x="274.3174386920982" style="color:#000000;cursor:default;font-size:11px;fill:#000000;" text-anchor="middle" transform="translate(0,0)" y="369" opacity="1">2000</text><text x="325.95231607629466" style="color:#000000;cursor:default;font-size:11px;fill:#000000;" text-anchor="middle" transform="translate(0,0)" y="369" opacity="1">2005</text><text x="377.5871934604911" style="color:#000000;cursor:default;font-size:11px;fill:#000000;" text-anchor="middle" transform="translate(0,0)" y="369" opacity="1">2010</text><text x="429.22207084468755" style="color:#000000;cursor:default;font-size:11px;fill:#000000;" text-anchor="middle" transform="translate(0,0)" y="369" opacity="1">2015</text></g><g class="highcharts-axis-labels highcharts-yaxis-labels "><text x="44" style="color:#000000;cursor:default;font-size:11px;fill:#000000;" text-anchor="end" transform="translate(0,0)" y="355" opacity="1"><tspan>0</tspan></text><text x="44" style="color:#000000;cursor:default;font-size:11px;fill:#000000;" text-anchor="end" transform="translate(0,0)" y="301" opacity="1"><tspan>2 500</tspan></text><text x="44" style="color:#000000;cursor:default;font-size:11px;fill:#000000;" text-anchor="end" transform="translate(0,0)" y="247" opacity="1"><tspan>5 000</tspan></text><text x="44" style="color:#000000;cursor:default;font-size:11px;fill:#000000;" text-anchor="end" transform="translate(0,0)" y="194" opacity="1"><tspan>7 500</tspan></text><text x="44" style="color:#000000;cursor:default;font-size:11px;fill:#000000;" text-anchor="end" transform="translate(0,0)" y="140" opacity="1"><tspan>10 000</tspan></text><text x="44" style="color:#000000;cursor:default;font-size:11px;fill:#000000;" text-anchor="end" transform="translate(0,0)" y="87" opacity="1"><tspan>12 500</tspan></text></g><g class="highcharts-axis-labels highcharts-yaxis-labels "><text x="453" style="color:#000000;cursor:default;font-size:11px;fill:#000000;" text-anchor="start" transform="translate(0,0)" y="355" opacity="1"><tspan>0%</tspan></text><text x="0" style="color:#000000;cursor:default;font-size:11px;fill:#000000;" text-anchor="start" transform="translate(0,0)" y="-9999"><tspan>5%</tspan></text><text x="453" style="color:#000000;cursor:default;font-size:11px;fill:#000000;" text-anchor="start" transform="translate(0,0)" y="247" opacity="1"><tspan>10%</tspan></text><text x="0" style="color:#000000;cursor:default;font-size:11px;fill:#000000;" text-anchor="start" transform="translate(0,0)" y="-9999"><tspan>15%</tspan></text><text x="453" style="color:#000000;cursor:default;font-size:11px;fill:#000000;" text-anchor="start" transform="translate(0,0)" y="140" opacity="1"><tspan>20%</tspan></text><text x="0" style="color:#000000;cursor:default;font-size:11px;fill:#000000;" text-anchor="start" transform="translate(0,0)" y="-9999"><tspan>25%</tspan></text></g><text x="10" class="highcharts-credits" text-anchor="start" style="cursor:default;color:#000000;font-size:10px;fill:#000000;" y="400"><tspan>Quelle: Statistisches Amt Basel-Stadt, kantonale Gebäude- und Wohnungsstatistik</tspan></text></svg>

<svg class="highcharts-root" xmlns="http://www.w3.org/2000/svg" viewBox="0 0 485 415" font-family="Arial" font-size="12">
    <defs>
        <clipPath id="a">
            <path fill="none" d="M0 0h379v268H0z"/>
        </clipPath>
    </defs>
    <rect fill="#fbfbfb" class="highcharts-background" width="485" height="415" rx="0" ry="0"/>
    <path fill="none" class="highcharts-plot-background" d="M59 82h379v268H59z"/>
    <g class="highcharts-grid highcharts-xaxis-grid">
        <path fill="none" class="highcharts-grid-line" d="M67.5 82v268m51-268v268m52-268v268m52-268v268m51-268v268m52-268v268m52-268v268m51-268v268"/>
    </g>
    <g class="highcharts-grid highcharts-yaxis-grid">
        <path fill="none" stroke="#e6e6e6" class="highcharts-grid-line" d="M59 350.5h379m-379-54h379m-379-53h379m-379-54h379m-379-53h379m-379-55h379"/>
    </g>
    <g class="highcharts-grid highcharts-yaxis-grid">
        <path fill="none" class="highcharts-grid-line" d="M59 350.5h379m-379-54h379m-379-53h379m-379-54h379m-379-53h379m-379-54h379"/>
    </g>
    <path fill="none" class="highcharts-plot-border" d="M59 82h379v268H59z"/>
    <g class="highcharts-axis highcharts-xaxis">
        <path fill="none" class="highcharts-tick" stroke="#FFF" d="M67.5 350v10m51-10v10m52-10v10m52-10v10m51-10v10m52-10v10m52-10v10m51-10v10"/>
        <path fill="none" class="highcharts-axis-line" stroke="#ccd6eb" d="M59 350.5h379"/>
    </g>
    <g class="highcharts-axis highcharts-yaxis">
        <path fill="none" class="highcharts-axis-line" d="M59 82v268"/>
    </g>
    <g class="highcharts-axis highcharts-yaxis">
        <path fill="none" class="highcharts-axis-line" d="M438 82v268"/>
    </g>
    <g class="highcharts-series-group">
        <g class="highcharts-series highcharts-series-0 highcharts-column-series highcharts-color-undefined highcharts-tracker" transform="translate(59 82)" clip-path="url(#a)">
            <path fill="#73b97c" class="highcharts-point" stroke="#fff" d="M3.5 52.5h10v216h-10zm103-2h10v218h-10zm103-9h10v227h-10zm104-3h10v230h-10zm31-1h10v231h-10zm10 0h10v231h-10zm10-1h10v232h-10z"/>
        </g>
        <g class="highcharts-series highcharts-series-1 highcharts-line-series highcharts-color-undefined" transform="translate(59 82)" clip-path="url(#a)">
            <path fill="none" d="M8.778 158.656l103.27 2.144 103.27-3.216 103.27 1.072 30.98 1.072h10.327l10.327 1.072" class="highcharts-graph" stroke="#cd9c00" stroke-width="2" stroke-linejoin="round" stroke-linecap="round"/>
            <path fill="none" d="M-1.222 158.656h10l103.27 2.144 103.27-3.216 103.27 1.072 30.98 1.072h10.327l10.327 1.072h10" stroke-linejoin="round" stroke="rgba(192,192,192,0.0001)" stroke-width="22" class="highcharts-tracker"/>
        </g>
        <g class="highcharts-markers highcharts-series-1 highcharts-line-series highcharts-color-undefined highcharts-tracker">
            <path fill="#cd9c00" d="M71 241a4 4 0 1 1 0-.004zm104 2a4 4 0 1 1 0-.004zm103-3a4 4 0 1 1 0-.004zm103 1a4 4 0 1 1 0-.004zm31 1a4 4 0 1 1 0-.004zm10 0a4 4 0 1 1 0-.004zm11 1a4 4 0 1 1 0-.004z" class="highcharts-point"/>
        </g>
    </g>
    <text x="10" class="highcharts-title" y="21" color="#000" font-size="14" font-weight="700">
        <tspan>1.4.b Genossenschaftswohnungen</tspan>
    </text>
    <g class="highcharts-legend" transform="translate(10 45)">
        <rect fill="none" class="highcharts-legend-box" rx="0" ry="0" width="437" height="25"/>
        <g class="highcharts-legend-item highcharts-column-series highcharts-color-undefined highcharts-series-0">
            <text x="21" y="15" color="#333" font-weight="400" cursor="pointer" fill="#333" transform="translate(8 3)">
                <tspan>Anzahl Genossenschaftswohnungen</tspan>
            </text>
            <path fill="#73b97c" class="highcharts-point" d="M10 7h12v12H10z"/>
        </g>
        <g class="highcharts-legend-item highcharts-line-series highcharts-color-undefined highcharts-series-1">
            <path fill="none" d="M243.719 14h16" class="highcharts-graph" stroke="#cd9c00" stroke-width="2"/>
            <path fill="#cd9c00" d="M255.719 14a4 4 0 1 1 0-.004z" class="highcharts-point"/>
            <text x="21" y="15" color="#333" font-weight="400" cursor="pointer" fill="#333" transform="translate(243.719 3)">
                <tspan>Anteil in Prozent (rechte Skala)</tspan>
            </text>
        </g>
    </g>
    <g class="highcharts-axis-labels highcharts-xaxis-labels" text-anchor="middle" color="#000" cursor="default" font-size="11">
        <text x="67.778" y="369">
            1980
        </text>
        <text x="119.413" y="369">
            1985
        </text>
        <text x="171.048" y="369">
            1990
        </text>
        <text x="222.683" y="369">
            1995
        </text>
        <text x="274.317" y="369">
            2000
        </text>
        <text x="325.952" y="369">
            2005
        </text>
        <text x="377.587" y="369">
            2010
        </text>
        <text x="429.222" y="369">
            2015
        </text>
    </g>
    <g class="highcharts-axis-labels highcharts-yaxis-labels" text-anchor="end" color="#000" cursor="default" font-size="11">
        <text x="44" y="355">
            <tspan>0</tspan>
        </text>
        <text x="44" y="301">
            <tspan>2 500</tspan>
        </text>
        <text x="44" y="247">
            <tspan>5 000</tspan>
        </text>
        <text x="44" y="194">
            <tspan>7 500</tspan>
        </text>
        <text x="44" y="140">
            <tspan>10 000</tspan>
        </text>
        <text x="44" y="87">
            <tspan>12 500</tspan>
        </text>
    </g>
    <g class="highcharts-axis-labels highcharts-yaxis-labels" color="#000" cursor="default" font-size="11">
        <text x="453" y="355">
            <tspan>0%</tspan>
        </text>
        <text y="-9999">
            <tspan>5%</tspan>
        </text>
        <text x="453" y="247">
            <tspan>10%</tspan>
        </text>
        <text y="-9999">
            <tspan>15%</tspan>
        </text>
        <text x="453" y="140">
            <tspan>20%</tspan>
        </text>
        <text y="-9999">
            <tspan>25%</tspan>
        </text>
    </g>
    <text x="10" class="highcharts-credits" y="400" cursor="default" color="#000" font-size="10">
        <tspan>Quelle: Statistisches Amt Basel-Stadt, kantonale Gebäude- und Wohnungsstatistik</tspan>
    </text>
</svg>
